icons/bookmark-add.svg

<svg width="24" height="24" viewBox="0 0 24 24" fill="none" xmlns="http://www.w3.org/2000/svg">
<path fill-rule="evenodd" clip-rule="evenodd" d="M15.5 3.12756C15.9142 3.12756 16.25 3.46335 16.25 3.87756V6.12756H18.5C18.9142 6.12756 19.25 6.46335 19.25 6.87756C19.25 7.29178 18.9142 7.62756 18.5 7.62756H16.25V9.87756C16.25 10.2918 15.9142 10.6276 15.5 10.6276C15.0858 10.6276 14.75 10.2918 14.75 9.87756V7.62756H12.5C12.0858 7.62756 11.75 7.29178 11.75 6.87756C11.75 6.46335 12.0858 6.12756 12.5 6.12756H14.75V3.87756C14.75 3.46335 15.0858 3.12756 15.5 3.12756ZM7.5 4.12756C5.98579 4.12756 4.75 5.36335 4.75 6.87756V19.0776C4.75 20.4114 6.13607 21.3351 7.3721 20.6287L7.44791 20.5854L10.4469 17.7864C10.4805 17.7746 10.5195 17.7746 10.5531 17.7864L13.5521 20.5854L13.6279 20.6287C14.8639 21.3351 16.25 20.4114 16.25 19.0776V12.8776C16.25 12.4634 15.9142 12.1276 15.5 12.1276C15.0858 12.1276 14.75 12.4634 14.75 12.8776V19.0776C14.75 19.2165 14.6859 19.2984 14.6225 19.3369C14.575 19.3659 14.5112 19.3819 14.4305 19.3535L11.467 16.5875L11.416 16.5535C10.8641 16.1856 10.1359 16.1856 9.58397 16.5535L9.53303 16.5875L6.56949 19.3535C6.48885 19.3819 6.42501 19.3659 6.37746 19.3369C6.31411 19.2984 6.25 19.2165 6.25 19.0776V6.87756C6.25 6.19178 6.81421 5.62756 7.5 5.62756H10.5C10.9142 5.62756 11.25 5.29178 11.25 4.87756C11.25 4.46335 10.9142 4.12756 10.5 4.12756H7.5Z" fill="black"/>
</svg>

<svg xmlns="http://www.w3.org/2000/svg" fill="none" viewBox="0 0 24 24">
  <path fill="#000" fill-rule="evenodd" d="M15.5 3.128a.75.75 0 0 1 .75.75v2.25h2.25a.75.75 0 0 1 0 1.5h-2.25v2.25a.75.75 0 1 1-1.5 0v-2.25H12.5a.75.75 0 0 1 0-1.5h2.25v-2.25a.75.75 0 0 1 .75-.75Zm-8 1a2.756 2.756 0 0 0-2.75 2.75v12.2c0 1.333 1.386 2.257 2.622 1.55l.076-.043 2.999-2.799a.164.164 0 0 1 .106 0l3 2.8.075.043c1.236.706 2.622-.218 2.622-1.551v-6.2a.75.75 0 0 0-1.5 0v6.2c0 .139-.064.22-.127.259a.215.215 0 0 1-.192.017l-2.964-2.767-.051-.034a1.658 1.658 0 0 0-1.832 0l-.051.034-2.964 2.767a.215.215 0 0 1-.192-.017c-.063-.039-.127-.12-.127-.26v-12.2c0-.685.564-1.25 1.25-1.25h3a.75.75 0 0 0 0-1.5h-3Z" clip-rule="evenodd"/>
</svg>
